X: 444
T:Unknown title 185b
M:4/4
L:1/8
R:Hornpipe
N:Posted to the woodenflute mailing list October 2001
Z:Kevin Gow
K:D
DFAd BcdB | Acec d2ef | gfga gfeg | fedB A2FA|!
BAGA BcdB | AFDF A2 (3ABc | d2df efc2 |1d2dc d2AF:|2d2dc defg||!
a2ab agfa | g2ga gfe2 | f2ff gfed | cdec A3A|!
BAGA BcdB | AGFG A2 (3ABc | d2 df edc2 |1d2dc defg :|2 d2dc d3z||
<end>
<start>
